X:1
T:Billy Grimes
M:6/8
L:1/8
K:G
 z4 z D| G2 G GGB|d-B d G2 G| A2 AA-G A| B3 G2 D| G2 G G2 B|d-B d G2 G|\
 A2 c B2 A| G3 G2 z|
